X: 6471
T: Cat In The Corner, The
R: slide
M: 12/8
K: Amajor
~c3 BAB cdc B2A|c2f e2c ~B3 BAB|
~c3 ~B3 cdc B2A|1 c2f e2c ~A3 ABA:|2 c2f e2c ~A3 Ace||
|:~f3f2ef2ga2A|cBc e2c ~B3 Bce|
~f3f2ef2ga2A|1 "y 3"cBc e2c aba g2a:|2 "go to B"a3aba g3gag:|4"go to A"3cBc e2c A3 ABA||

